assets/img/braze_icons/airplay.svg

<svg fill="none" height="24" viewBox="0 0 24 24" width="24" xmlns="http://www.w3.org/2000/svg"><g fill="#801ed7"><path clip-rule="evenodd" d="m11.4851 14.3722c.3325-.1216.6973-.1216 1.0298 0 .2629.0961.4436.2566.5563.3702.1001.1009.2044.2262.2947.3347.0057.0068.0113.0135.0169.0202l3.292 3.9504c.0076.0091.0152.0183.0229.0275.1543.1851.3106.3726.4244.5373.1076.1559.3041.4622.3102.8649.007.461-.1985.8995-.557 1.1893-.3132.2531-.6744.2983-.863.3153-.1994.0181-.4435.018-.6845.018-.012 0-.0239 0-.0358 0h-6.58397c-.01191 0-.02385 0-.03579 0-.24099 0-.48509.0001-.68452-.018-.18861-.017-.54978-.0622-.86299-.3153-.35858-.2898-.56399-.7283-.55704-1.1893.00607-.4027.20258-.709.31021-.8649.1138-.1647.2701-.3522.42442-.5373.00764-.0092.01529-.0184.02292-.0275l3.29196-3.9504c.0056-.0067.0112-.0134.0169-.0203.0903-.1084.1947-.2337.2947-.3346.1127-.1136.2934-.2741.5563-.3702z" fill-rule="evenodd"/><path d="m17.2413 2h-10.4826c-.80496-.00001-1.46933-.00002-2.01052.04419-.5621.04593-1.07881.14449-1.56414.39179-.75265.38349-1.36457.99541-1.74806 1.74806-.2473.48533-.34586 1.00204-.39179 1.56414-.044212.54119-.044202 1.20554-.04419 2.01051v5.48261c-.000012.805-.000022 1.4693.04419 2.0105.04593.5621.14449 1.0788.39179 1.5642.38349.7526.99541 1.3645 1.74806 1.748.38484.1961.80207.2993 1.22678.3558.16834.0225.25252.0337.33443.0172.07669-.0155.13726-.0425.19999-.0892.067-.0499.13158-.1445.26072-.3335.00972-.0142.01856-.027.02641-.0384.16849-.2439.38256-.5003.52176-.667l3.32674-3.992.02066-.0248c.08074-.0973.24144-.2909.40773-.4584.20105-.2026.62714-.598 1.28934-.84.7759-.2836 1.6271-.2836 2.403 0 .6622.242 1.0883.6374 1.2894.84.1662.1675.3269.3611.4077.4583l.0206.0249 3.3268 3.992c.1392.1667.3532.423.5217.667.0079.0114.0167.0242.0264.0384.1292.189.1938.2835.2608.3335.0627.0467.1233.0737.2.0892.0819.0165.1661.0052.3344-.0172.4246-.0565.8418-.1597 1.2266-.3558.7526-.3835 1.3645-.9954 1.748-1.748.2473-.4854.3459-1.0021.3918-1.5642.0442-.5412.0442-1.2055.0442-2.0105v-5.48262c0-.80496 0-1.46931-.0442-2.0105-.0459-.5621-.1445-1.07881-.3918-1.56414-.3835-.75265-.9954-1.36457-1.748-1.74806-.4854-.2473-1.0021-.34586-1.5642-.39179-.5412-.04421-1.2055-.0442-2.0105-.04419z"/></g></svg>

<svg width="24" height="24" viewBox="0 0 24 24" fill="none" xmlns="http://www.w3.org/2000/svg">
<path fill-rule="evenodd" clip-rule="evenodd" d="M11.4851 14.3722C11.8176 14.2506 12.1824 14.2506 12.5149 14.3722C12.7778 14.4683 12.9585 14.6288 13.0712 14.7424C13.1713 14.8433 13.2756 14.9686 13.3659 15.0771C13.3716 15.0839 13.3772 15.0906 13.3828 15.0973L16.6748 19.0477C16.6824 19.0568 16.69 19.066 16.6977 19.0752C16.852 19.2603 17.0083 19.4478 17.1221 19.6125C17.2297 19.7684 17.4262 20.0747 17.4323 20.4774C17.4393 20.9384 17.2338 21.3769 16.8753 21.6667C16.5621 21.9198 16.2009 21.965 16.0123 21.982C15.8129 22.0001 15.5688 22 15.3278 22C15.3158 22 15.3039 22 15.292 22H8.70803C8.69612 22 8.68418 22 8.67224 22C8.43125 22 8.18715 22.0001 7.98772 21.982C7.79911 21.965 7.43794 21.9198 7.12473 21.6667C6.76615 21.3769 6.56074 20.9384 6.56769 20.4774C6.57376 20.0747 6.77027 19.7684 6.8779 19.6125C6.9917 19.4478 7.148 19.2603 7.30232 19.0752C7.30996 19.066 7.31761 19.0568 7.32524 19.0477L10.6172 15.0973C10.6228 15.0906 10.6284 15.0839 10.6341 15.077C10.7244 14.9686 10.8288 14.8433 10.9288 14.7424C11.0415 14.6288 11.2222 14.4683 11.4851 14.3722Z" fill="#801ED7"/>
<path d="M17.2413 2H6.7587C5.95374 1.99999 5.28937 1.99998 4.74818 2.04419C4.18608 2.09012 3.66937 2.18868 3.18404 2.43598C2.43139 2.81947 1.81947 3.43139 1.43598 4.18404C1.18868 4.66937 1.09012 5.18608 1.04419 5.74818C0.999978 6.28937 0.999988 6.95372 1 7.75869V13.2413C0.999988 14.0463 0.999978 14.7106 1.04419 15.2518C1.09012 15.8139 1.18868 16.3306 1.43598 16.816C1.81947 17.5686 2.43139 18.1805 3.18404 18.564C3.56888 18.7601 3.98611 18.8633 4.41082 18.9198C4.57916 18.9423 4.66334 18.9535 4.74525 18.937C4.82194 18.9215 4.88251 18.8945 4.94524 18.8478C5.01224 18.7979 5.07682 18.7033 5.20596 18.5143C5.21568 18.5001 5.22452 18.4873 5.23237 18.4759C5.40086 18.232 5.61493 17.9756 5.75413 17.8089L9.08087 13.8169L9.10153 13.7921C9.18227 13.6948 9.34297 13.5012 9.50926 13.3337C9.71031 13.1311 10.1364 12.7357 10.7986 12.4937C11.5745 12.2101 12.4257 12.2101 13.2016 12.4937C13.8638 12.7357 14.2899 13.1311 14.491 13.3337C14.6572 13.5012 14.8179 13.6948 14.8987 13.792L14.9193 13.8169L18.2461 17.8089C18.3853 17.9756 18.5993 18.2319 18.7678 18.4759C18.7757 18.4873 18.7845 18.5001 18.7942 18.5143C18.9234 18.7033 18.988 18.7978 19.055 18.8478C19.1177 18.8945 19.1783 18.9215 19.255 18.937C19.3369 18.9535 19.4211 18.9422 19.5894 18.9198C20.014 18.8633 20.4312 18.7601 20.816 18.564C21.5686 18.1805 22.1805 17.5686 22.564 16.816C22.8113 16.3306 22.9099 15.8139 22.9558 15.2518C23 14.7106 23 14.0463 23 13.2413V7.75868C23 6.95372 23 6.28937 22.9558 5.74818C22.9099 5.18608 22.8113 4.66937 22.564 4.18404C22.1805 3.43139 21.5686 2.81947 20.816 2.43598C20.3306 2.18868 19.8139 2.09012 19.2518 2.04419C18.7106 1.99998 18.0463 1.99999 17.2413 2Z" fill="#801ED7"/>
</svg>
